src/img/repeat_one.svg

<?xml version="1.0" encoding="UTF-8" standalone="no"?>
<svg
   xmlns:dc="http://purl.org/dc/elements/1.1/"
   xmlns:cc="http://creativecommons.org/ns#"
   xmlns:rdf="http://www.w3.org/1999/02/22-rdf-syntax-ns#"
   xmlns:svg="http://www.w3.org/2000/svg"
   xmlns="http://www.w3.org/2000/svg"
   xmlns:sodipodi="http://sodipodi.sourceforge.net/DTD/sodipodi-0.dtd"
   xmlns:inkscape="http://www.inkscape.org/namespaces/inkscape"
   width="16pt"
   height="15pt"
   viewBox="0 0 16 15"
   version="1.1"
   id="svg997"
   sodipodi:docname="repeat_one.svg"
   inkscape:version="0.92.2 5c3e80d, 2017-08-06">
  <metadata
     id="metadata1003">
    <rdf:RDF>
      <cc:Work
         rdf:about="">
        <dc:format>image/svg+xml</dc:format>
        <dc:type
           rdf:resource="http://purl.org/dc/dcmitype/StillImage" />
        <dc:title />
      </cc:Work>
    </rdf:RDF>
  </metadata>
  <defs
     id="defs1001" />
  <sodipodi:namedview
     pagecolor="#ffffff"
     bordercolor="#666666"
     borderopacity="1"
     objecttolerance="10"
     gridtolerance="10"
     guidetolerance="10"
     inkscape:pageopacity="0"
     inkscape:pageshadow="2"
     inkscape:window-width="1240"
     inkscape:window-height="747"
     id="namedview999"
     showgrid="false"
     inkscape:zoom="33.37544"
     inkscape:cx="12.396739"
     inkscape:cy="10.104705"
     inkscape:window-x="170"
     inkscape:window-y="79"
     inkscape:window-maximized="0"
     inkscape:current-layer="svg997" />
  <g
     id="surface1">
    <path
       style="fill:#a5a5a5;fill-opacity:1;fill-rule:nonzero;stroke:none;stroke-width:1.33333337"
       d="M 4,0 C 1.8020826,0 0,1.8020826 0,4 v 12 c 0,2.197917 1.8020826,4 4,4 h 13.333984 c 2.197918,0 4,-1.802083 4,-4 V 4 c 0,-2.1979174 -1.802082,-4 -4,-4 z M 12,1.0214844 15.646484,4.6660156 12,8.3125 V 5.3339844 H 6.6660156 c -2.5208333,0 -4.421875,2.6653645 -4.421875,5.3320316 H 0.91210938 C 0.91210938,6.6660156 3.4368489,4 6.6660156,4 H 12 Z m -0.688301,6.1490303 -0.0096,5.3948603 -1.257287,-0.0098 0.02556,-3.8988093 -0.8626585,-0.011071 0.015625,-0.5970124 C 9.5498903,8.0215333 9.887778,7.9102598 9.9915838,7.7999508 c 0,0 0.2895702,-0.2368933 0.4211672,-0.6211366 z m 7.776192,3.4955013 h 1.333984 C 20.421875,13.332682 17.895182,16 14.666016,16 H 9.3339844 v 2.978516 L 5.6875,15.333984 9.3339844,11.6875 v 2.978516 h 5.3320316 c 2.520833,0 4.421875,-2.666667 4.421875,-4 z"
       transform="scale(0.74999999)"
       id="path994"
       inkscape:connector-curvature="0"
       sodipodi:nodetypes="sssssssssccccsccscccccccccccccscccccsc" />
  </g>
</svg>

<?xml version="1.0" encoding="UTF-8" standalone="no"?>
<svg
   xmlns:dc="http://purl.org/dc/elements/1.1/"
   xmlns:cc="http://creativecommons.org/ns#"
   xmlns:rdf="http://www.w3.org/1999/02/22-rdf-syntax-ns#"
   xmlns:svg="http://www.w3.org/2000/svg"
   xmlns="http://www.w3.org/2000/svg"
   xmlns:sodipodi="http://sodipodi.sourceforge.net/DTD/sodipodi-0.dtd"
   xmlns:inkscape="http://www.inkscape.org/namespaces/inkscape"
   width="16pt"
   height="15pt"
   viewBox="0 0 16 15"
   version="1.1"
   id="svg997"
   sodipodi:docname="repeat_one.svg"
   inkscape:version="0.92.2 5c3e80d, 2017-08-06">
  <metadata
     id="metadata1003">
    <rdf:RDF>
      <cc:Work
         rdf:about="">
        <dc:format>image/svg+xml</dc:format>
        <dc:type
           rdf:resource="http://purl.org/dc/dcmitype/StillImage" />
        <dc:title />
      </cc:Work>
    </rdf:RDF>
  </metadata>
  <defs
     id="defs1001" />
  <sodipodi:namedview
     pagecolor="#ffffff"
     bordercolor="#666666"
     borderopacity="1"
     objecttolerance="10"
     gridtolerance="10"
     guidetolerance="10"
     inkscape:pageopacity="0"
     inkscape:pageshadow="2"
     inkscape:window-width="1240"
     inkscape:window-height="747"
     id="namedview999"
     showgrid="false"
     inkscape:zoom="23.6"
     inkscape:cx="7.0035517"
     inkscape:cy="10.721588"
     inkscape:window-x="683"
     inkscape:window-y="183"
     inkscape:window-maximized="0"
     inkscape:current-layer="svg997" />
  <g
     id="surface1">
    <path
       style="fill:#a5a5a5;fill-opacity:1;fill-rule:nonzero;stroke:none;stroke-width:1.33333337"
       d="M 4 0 C 1.8020826 0 -5.9211895e-16 1.8020826 0 4 L 0 16 C 0 18.197917 1.8020826 20 4 20 L 17.333984 20 C 19.531902 20 21.333984 18.197917 21.333984 16 L 21.333984 4 C 21.333984 1.8020826 19.531902 -5.9211895e-16 17.333984 0 L 4 0 z M 12 1.0214844 L 15.646484 4.6660156 L 12 8.3125 L 12 5.3339844 L 6.6660156 5.3339844 C 4.1451823 5.3339844 2.2441406 7.9993485 2.2441406 10.666016 L 0.91210938 10.666016 C 0.91210938 6.6660152 3.4368489 4 6.6660156 4 L 12 4 L 12 1.0214844 z M 10.007812 7.1582031 L 10.738281 7.1582031 L 10.738281 12.080078 L 9.7285156 12.080078 L 9.7285156 8.671875 L 8.3242188 8.671875 L 8.3105469 7.9726562 C 8.5104175 7.9726562 8.7034865 7.9577142 8.8925781 7.9296875 C 9.0812195 7.9016608 9.2515862 7.8545812 9.4042969 7.7890625 C 9.5570062 7.7235558 9.6866765 7.6401147 9.7949219 7.5371094 C 9.9031619 7.4341094 9.9745778 7.3081645 10.007812 7.1582031 z M 19.087891 10.666016 L 20.421875 10.666016 C 20.421875 13.332682 17.895182 16 14.666016 16 L 9.3339844 16 L 9.3339844 18.978516 L 5.6875 15.333984 L 9.3339844 11.6875 L 9.3339844 14.666016 L 14.666016 14.666016 C 17.186849 14.666016 19.087891 11.999349 19.087891 10.666016 z "
       transform="scale(0.74999999)"
       id="path994" />
  </g>
</svg>
